!!!COM:	Bach, Johann Sebastian
!!!CDT:	1685/02/21/-1750/07/28/
!!!OTL@@DE:	Was frag ich nach der Welt
!!!SCT:	BWV 64/4
!!!PC#:	255
!!!AGN:	chorale
**kern	**kern	**kern	**kern
*ICvox	*ICvox	*ICvox	*ICvox
*Ibass	*Itenor	*Ialto	*Isoprn
*I"Bass	*I"Tenor	*I"Alto	*I"Soprano
*	*oclefC4	*oclefC3	*oclefC1
*clefF4	*clefGv2	*clefG2	*clefG2
*k[f#c#]	*k[f#c#]	*k[f#c#]	*k[f#c#]
*D:	*D:	*D:	*D:
*M4/4	*M4/4	*M4/4	*M4/4
*met(c)	*met(c)	*met(c)	*met(c)
*MM100	*MM100	*MM100	*MM100
4C#	4A	4e	4a
=1	=1	=1	=1
8DL	4A	4d	4f#
8C#J	.	.	.
8DL	4A	8f#L	4d
8EJ	.	8eJ	.
8F#L	4A	4d	4a
8EJ	.	.	.
8F#L	4d	8aL	4a
8DJ	.	8f#J	.
=2	=2	=2	=2
2.G;	2.d;	2.g;	2.b;
4GG	4G	4d	4b
=3	=3	=3	=3
8AAL	4.G	8c#L	4e
8GGJ	.	8dJ	.
8AAL	.	8c#L	4e
8BBJ	8F#	8BJ	.
8C#L	4E	4A	4a
8BBJ	.	.	.
8C#L	4A	4e	4g
8AAJ	.	.	.
=4	=4	=4	=4
4D	4A	4d	4f#
4D;	4F#;	4A;	4d;
4r	4ry	4ry	4r
4F#	4A	4d	4a
=5	=5	=5	=5
4G	8GL	4d	4b
.	8AJ	.	.
4E	4B	4g	4b
4A	8c#L	4f#	4a
.	8dJ	.	.
4AA	8dL	4e	4g
.	8c#J	.	.
=6	=6	=6	=6
2.D;	2.d;	2.A;	2.f#;
4AA	4c#	4c#	4e
=7	=7	=7	=7
8DL	4A	4d	4f#
8C#J	.	.	.
8DL	4B	4e	4g#
8BBJ	.	.	.
8C#L	4.A	4.e	4.a
8BBJ	.	.	.
8C#L	.	.	.
8DJ	8d	8f#	8b
=8	=8	=8	=8
2E	2B	2e	2g#
4AA;	4c#;	4e;	4a;
4AA	4c#	4e	4a
=9	=9	=9	=9
8DL	4d	8f#L	4a
8C#J	.	8eJ	.
8DL	4d	8f#L	4a
8EJ	.	8gnXJ	.
8F#L	4d	8aL	4dd
8EJ	.	8gJ	.
8F#L	4d	8aL	4cc
8DJ	.	8f#J	.
=10	=10	=10	=10
2.G;	2.d;	2.g;	2.b;
4D#	8BL	4f#	4b
.	8AJ	.	.
=11	=11	=11	=11
8EL	8G#L	4e	4b
8D#J	8F#J	.	.
8EL	8G#L	4e	4b
8F#J	8AJ	.	.
8G#L	8BL	4e	4ee
8F#J	8AJ	.	.
8G#L	8BL	4e	4ddnX
8EJ	8G#J	.	.
=12	=12	=12	=12
2.A;	2.A;	2.e;	2.cc#;
4F#	4d	4d	4a
=13	=13	=13	=13
8GnXL	4d	4g	4b
8AJ	.	.	.
8GL	4d	4a	4a
8F#J	.	.	.
8GL	4d	4g	4b
8F#J	.	.	.
8GL	4e	8bL	4cc#
8EJ	.	8a#J	.
=14	=14	=14	=14
2.B;	2.f#;	2.b;	2.dd;
4C#	4e	8anXL	4anX
.	.	8gJ	.
=15	=15	=15	=15
8DL	4d	4f#	4a
8EJ	.	.	.
8F#L	4A	8eL	8gL
8GJ	.	8dJ	8f#J
4A	8AL	4d	4e
.	8BJ	.	.
4AA	8AL	4c#	4e
.	8GJ	.	.
=16	=16	=16	=16
2.D;	2.F#;	2.A;	2.d;
==	==	==	==
*-	*-	*-	*-
!!!YOR1: 371 vierstimmige Choralges&auml;nge von Johann Sebastian Bach, 
!!!YOR2: 4th ed. by Alfred D&ouml;rffel (Leipzig: Breitkopf und H&auml;rtel, 
!!!YOR2: c.1875). 178 pp. Plate "V.A.10".  reprint: J.S. Bach, 371 Four-Part 
!!!YOR4: Chorales (New York: Associated Music Publishers, Inc., c.1940).
!!!SMS: B&H, 4th ed, Alfred D&ouml;rffel, c.1875, plate V.A.10
!!!EED:  Craig Stuart Sapp
!!!EEV:  2009/05/22
